client/src/assets/img/file-txt.svg

<?xml version="1.0" encoding="iso-8859-1"?>
<!-- Generator: Adobe Illustrator 18.0.0, SVG Export Plug-In . SVG Version: 6.00 Build 0)  -->
<!DOCTYPE svg PUBLIC "-//W3C//DTD SVG 1.1//EN" "http://www.w3.org/Graphics/SVG/1.1/DTD/svg11.dtd">
<svg version="1.1" id="Capa_1" xmlns="http://www.w3.org/2000/svg" xmlns:xlink="http://www.w3.org/1999/xlink" x="0px" y="0px"
	 viewBox="0 0 58.707 58.707" style="enable-background:new 0 0 58.707 58.707;" xml:space="preserve">
<g>
	<g>
		<polygon style="fill:#EFEBDE;" points="46.072,14 32.072,0 1.072,0 1.072,58 46.072,58 		"/>
		<g>
			<path style="fill:#D5D0BB;" d="M11.072,23h25c0.552,0,1-0.447,1-1s-0.448-1-1-1h-25c-0.552,0-1,0.447-1,1S10.52,23,11.072,23z"/>
			<path style="fill:#D5D0BB;" d="M11.072,15h10c0.552,0,1-0.447,1-1s-0.448-1-1-1h-10c-0.552,0-1,0.447-1,1S10.52,15,11.072,15z"/>
			<path style="fill:#D5D0BB;" d="M36.072,29h-25c-0.552,0-1,0.447-1,1s0.448,1,1,1h25c0.552,0,1-0.447,1-1S36.624,29,36.072,29z"/>
			<path style="fill:#D5D0BB;" d="M36.072,37h-25c-0.552,0-1,0.447-1,1s0.448,1,1,1h25c0.552,0,1-0.447,1-1S36.624,37,36.072,37z"/>
			<path style="fill:#D5D0BB;" d="M36.072,45h-25c-0.552,0-1,0.447-1,1s0.448,1,1,1h25c0.552,0,1-0.447,1-1S36.624,45,36.072,45z"/>
		</g>
		<polygon style="fill:#D5D0BB;" points="32.072,0 32.072,14 46.072,14 		"/>
	</g>
	<g>
		<polygon style="fill:#EDDCC7;" points="36.201,49.214 36.194,49.222 34.205,56.511 38.852,51.865 		"/>
		<path style="fill:#D75A4A;" d="M55.451,35.266l-1.247-1.247c-0.775-0.775-2.032-0.775-2.807,0L47.815,37.6l2.651,2.651
			L55.451,35.266z"/>
		
			<rect x="41.459" y="36.521" transform="matrix(0.7071 0.7071 -0.7071 0.7071 44.3228 -17.5395)" style="fill:#F29C21;" width="3.749" height="16.424"/>
		<polygon style="fill:#D6C4B1;" points="41.85,54.879 41.858,54.871 38.852,51.865 34.205,56.511 34.072,57 		"/>
		<path style="fill:#A34740;" d="M53.472,43.257l3.582-3.582c0.775-0.775,0.775-2.032,0-2.807l-1.602-1.602l-4.985,4.985
			L53.472,43.257z"/>
		
			<rect x="44.036" y="39.349" transform="matrix(-0.7071 -0.7071 0.7071 -0.7071 45.1717 113.8333)" style="fill:#E18C25;" width="4.251" height="16.424"/>
		<path style="fill:#5E5E5E;" d="M33.365,58.707c-0.256,0-0.512-0.098-0.707-0.293c-0.391-0.391-0.391-1.023,0-1.414l2.207-2.207
			c0.391-0.391,1.023-0.391,1.414,0s0.391,1.023,0,1.414l-2.207,2.207C33.877,58.609,33.621,58.707,33.365,58.707z"/>
	</g>
</g>
<g>
</g>
<g>
</g>
<g>
</g>
<g>
</g>
<g>
</g>
<g>
</g>
<g>
</g>
<g>
</g>
<g>
</g>
<g>
</g>
<g>
</g>
<g>
</g>
<g>
</g>
<g>
</g>
<g>
</g>
</svg>

<?xml version="1.0" encoding="UTF-8" standalone="no"?>
<!DOCTYPE svg PUBLIC "-//W3C//DTD SVG 1.1//EN" "http://www.w3.org/Graphics/SVG/1.1/DTD/svg11.dtd">
<!-- Created with Vectornator (http://vectornator.io/) -->
<svg height="100%" stroke-miterlimit="10" style="fill-rule:nonzero;clip-rule:evenodd;stroke-linecap:round;stroke-linejoin:round;" version="1.1" viewBox="0 0 58.707 58.707" width="100%" xml:space="preserve" xmlns="http://www.w3.org/2000/svg" xmlns:xlink="http://www.w3.org/1999/xlink">
<defs/>
<clipPath id="ArtboardFrame">
<rect height="58.707" width="58.707" x="0" y="0"/>
</clipPath>
<g clip-path="url(#ArtboardFrame)" id="Untitled">
<g opacity="1">
<g opacity="1">
<path d="M46.072 14L32.072 0L1.072 0L1.072 58L46.072 58L46.072 14Z" fill="#efebde" fill-rule="nonzero" opacity="1" stroke="none"/>
<g opacity="1">
<path d="M11.072 23L36.072 23C36.624 23 37.072 22.553 37.072 22C37.072 21.447 36.624 21 36.072 21L11.072 21C10.52 21 10.072 21.447 10.072 22C10.072 22.553 10.52 23 11.072 23Z" fill="#3887de" fill-rule="nonzero" opacity="1" stroke="none"/>
<path d="M11.072 15L21.072 15C21.624 15 22.072 14.553 22.072 14C22.072 13.447 21.624 13 21.072 13L11.072 13C10.52 13 10.072 13.447 10.072 14C10.072 14.553 10.52 15 11.072 15Z" fill="#3887de" fill-rule="nonzero" opacity="1" stroke="none"/>
<path d="M36.072 29L11.072 29C10.52 29 10.072 29.447 10.072 30C10.072 30.553 10.52 31 11.072 31L36.072 31C36.624 31 37.072 30.553 37.072 30C37.072 29.447 36.624 29 36.072 29Z" fill="#3887de" fill-rule="nonzero" opacity="1" stroke="none"/>
<path d="M36.072 37L11.072 37C10.52 37 10.072 37.447 10.072 38C10.072 38.553 10.52 39 11.072 39L36.072 39C36.624 39 37.072 38.553 37.072 38C37.072 37.447 36.624 37 36.072 37Z" fill="#3887de" fill-rule="nonzero" opacity="1" stroke="none"/>
<path d="M36.072 45L11.072 45C10.52 45 10.072 45.447 10.072 46C10.072 46.553 10.52 47 11.072 47L36.072 47C36.624 47 37.072 46.553 37.072 46C37.072 45.447 36.624 45 36.072 45Z" fill="#3887de" fill-rule="nonzero" opacity="1" stroke="none"/>
</g>
<path d="M32.072 0L32.072 14L46.072 14L32.072 0Z" fill="#3887de" fill-rule="nonzero" opacity="1" stroke="none"/>
</g>
<g opacity="1">
<path d="M36.201 49.214L36.194 49.222L34.205 56.511L38.852 51.865L36.201 49.214Z" fill="#eddcc7" fill-rule="nonzero" opacity="1" stroke="none"/>
<path d="M55.451 35.266L54.204 34.019C53.429 33.244 52.172 33.244 51.397 34.019L47.815 37.6L50.466 40.251L55.451 35.266Z" fill="#82b8f3" fill-rule="nonzero" opacity="1" stroke="none"/>
<path d="M47.8145 37.6002L50.4654 40.2511L50.4654 40.2511L38.852 51.8645L38.852 51.8645L36.201 49.2136L36.201 49.2136L47.8145 37.6002L47.8145 37.6002Z" fill="#f29c21" fill-rule="nonzero" opacity="1" stroke="none"/>
<path d="M41.85 54.879L41.858 54.871L38.852 51.865L34.205 56.511L34.072 57L41.85 54.879Z" fill="#d6c4b1" fill-rule="nonzero" opacity="1" stroke="none"/>
<path d="M53.472 43.257L57.054 39.675C57.829 38.9 57.829 37.643 57.054 36.868L55.452 35.266L50.467 40.251L53.472 43.257Z" fill="#3673b5" fill-rule="nonzero" opacity="1" stroke="none"/>
<path d="M41.8575 54.8718L38.8516 51.8659L38.8516 51.8659L50.465 40.2525L50.465 40.2525L53.4709 43.2584L53.4709 43.2584L41.8575 54.8718L41.8575 54.8718Z" fill="#e18c25" fill-rule="nonzero" opacity="1" stroke="none"/>
<path d="M33.365 58.707C33.109 58.707 32.853 58.609 32.658 58.414C32.267 58.023 32.267 57.391 32.658 57L34.865 54.793C35.256 54.402 35.888 54.402 36.279 54.793C36.67 55.184 36.67 55.816 36.279 56.207L34.072 58.414C33.877 58.609 33.621 58.707 33.365 58.707Z" fill="#5e5e5e" fill-rule="nonzero" opacity="1" stroke="none"/>
</g>
</g>
</g>
</svg>
